X:1
T:Title
%%score { ( 1 4 ) | ( 2 3 ) }
L:1/8
M:12/8
K:Ab
V:1 treble nm="Grand Piano"
V:4 treble 
V:2 bass 
V:3 bass 
V:1
 z6 z3[Q:1/4=100] .[A,CE]2 [DB] | [Ec]3 [=D_c]3 [E=c]3 [Fd]cB | A3 [=DB]3 B3 B2 c | z3 c3 z6 | %4
[M:27/16] [FB]/-[FB]/-[FB]-<[FB][F_c]/-[Fc]/-[Fc]-<[Fc][=E=c]/-[Ec]/-[Ec]/-[Ec]/-[Ec]/-[Ec]-<[Ec][_Ed]-<[Ed][Ed] | %5
[M:6/4] z6 z2 z .c3 | [A,FA]3 [CF=A]3 [DFB]3 [B,EG]2 [B,EG] | [A,EA]3 [Ed]3 [Ec]3 [B,FB]2 [DFB] | %8
[M:9/8] [CEA]3 [B,DG]3 [A,CA]3 |[M:3/8] z3 |[M:6/4] d6- d3 .f3 | c12 | B3 B3 z2 z B3 | B12 | %14
 A6- A3 .[CA]3 | e2- [Fe] d2- [Fd-] [Fd]2- [F-d]/F/ [Fd]2 [Fd] | c3 B3 A3 G3 | %17
[M:9/8] A2- [EA-] [DA-]2 [DA-] [CA]3[Q:1/4=99][Q:1/4=97][Q:1/4=96][Q:1/4=94][Q:1/4=93][Q:1/4=91][Q:1/4=90][Q:1/4=88][Q:1/4=87][Q:1/4=85][Q:1/4=84][Q:1/4=82][Q:1/4=81][Q:1/4=79][Q:1/4=78][Q:1/4=76] |] %18
V:2
 z6 z3 z A[A,,A,] | [A,,A,]3 [A,,A,]3 [A,,A,]3 z E[E,G,=D] | %2
 [F,A,C]3 [B,,A,]3 [E,G,E]3 [E,G,E]2 [E,A,E] | [E,B,E]3 [A,E]3 [F,A,]3 [E,=A,]2 [E,A,] | %4
[M:27/16] [D,B,]/-[D,B,]/-[D,B,]-<[D,B,][D,F,]/-[D,F,]/-[D,F,]-<[D,F,][C,G,]/-[C,G,]/-[C,G,]/-[C,G,]/-[C,G,]/-[C,G,]-<[C,G,][B,,G,]-<[B,,G,][B,,G,] | %5
[M:6/4] [A,,A,]3 [A,,A,]3 [A,,A,]3 [A,,A,][B,,G,]C, | D,3 C,3 B,,3 D,2 D, | %7
 C,3 [B,,G,]3 [A,,A,]3 D,2 D, |[M:9/8] E,3 E,3 A,,3 |[M:3/8][K:treble] ABc | %10
[M:6/4][K:bass] [D,A,]2 [D,A,] [D,A,]2 [D,A,] [D,A,]3 [D,A,]2 [D,A,] | %11
 [A,,A,]2 [A,,A,] [A,,A,]2 [A,,A,] .[A,,A,]6 | %12
 [F,A,=D]2 [F,A,] [F,A,D]2 [F,A,] [B,,A,]3 [B,,A,]2 [B,,A,] | [E,G,E]3 [F,A,]3 .[E,G,]6 | %14
 A,,2 A,, A,,2 A,, A,,4 A,[C,A,] | [D,A,]2 [D,A,] [D,A,]2 [D,A,] [D,A,]3 [D,A,]2 [D,A,] | %16
 [E,A,E]3 [E,DE]3 [E,CE]3 [E,B,D]3 |[M:9/8] z2 _G, F,2 =E, _E,3 |] %18
V:3
 z6 z3 .A,,3 | z6 z3 .[A,,A,]3 | x12 | x12 |[M:27/16] x27/2 |[M:6/4] x12 | x12 | x12 |[M:9/8] x9 | %9
[M:3/8][K:treble] x3 |[M:6/4][K:bass] x12 | x12 | x12 | x12 | z6 z2 z .A,,3 | x12 | x12 | %17
[M:9/8] A,,8- A,, |] %18
V:4
 x12 | x12 | x12 | d3 z2 _G, [Ad]3 [_Gc]2 [Gc] |[M:27/16] x27/2 | %5
[M:6/4] [Ec]3 [=D_c]3 [E=c]3 E-[E_c][A,EA] | x12 | x12 |[M:9/8] x9 |[M:3/8] x3 | %10
[M:6/4] F2 F F2 F F3 F-[Fe][Fd] | E2 E E2 E E3 BcB | z2 .=D3 D [Dc]3 D2 D | z2 z =D3 E3 cBA | %14
 [CE]2 [CE] [CE]2 [CE] [CE]3 E-[Ec][_Ge] | .F3 .F3 z6 | x12 |[M:9/8] .[A,C]3 z3 z3 |] %18

